X:8
T:Woodman. Tho24CDs1792.08, The
M:6/8
L:1/8
Q:3/8=120
C:"80"
B:Thompson 24 CDs 1792
Z:Village Music Project, Chris Partington, 1999 & 2017
W:First Cu. set to the 2nd lady,hands 3 around .| the same to the 2nd
W:gent :| lead down 2 cu. up one :|. right and left :|
K:A
|:A2ce2g|agf edc|fed cBA|GABE3|
A2ce2g|agf edc|Bfe dcB|A3-A3:|
|:G2Bd2B|c2Ae2c|fdB ecA|B3E3|
d2ef2g|agf edc|d2BG2B|A3[A,3A3]:|

